X:18261
T:Vauxalls Hornpipe. GS.099
T:Sadler's Wells Hornpipe,aka. GS.099
M:2/2
L:1/8
Q:160
S:George Spencer m/s, Leeds,1831
R:Hornpipe
O:England
A:Leeds
H:1831
Z:vmp.Cherri Graebe
K:G major
BA | G2G,2 GcBA | BdBG F2 ED | CDEC B,CDB, | A,2A2A2 BA | G2G2GcBA |! Bd
BG F2 ED |
 c2 BA BGAF | G2G2G2 :||: d2 | g2d2 ecBA | BdBG F2 ED |! cdec BdBG | F2A
2A
2d2 | g2d2 ecBA | BdBG F2 ED | c2 BA BGAF | G2G2G2 :||
